packages/assets/static/images/icons/dog.svg

<svg width="24" height="24" viewBox="0 0 24 24" xmlns="http://www.w3.org/2000/svg">
<path d="M9.62499 12.75C9.62499 13.0466 9.53702 13.3367 9.3722 13.5833C9.20738 13.83 8.97311 14.0223 8.69902 14.1358C8.42493 14.2493 8.12333 14.279 7.83236 14.2211C7.54139 14.1633 7.27411 14.0204 7.06433 13.8106C6.85455 13.6009 6.71169 13.3336 6.65382 13.0426C6.59594 12.7516 6.62564 12.45 6.73917 12.1759C6.85271 11.9019 7.04496 11.6676 7.29164 11.5028C7.53831 11.3379 7.82832 11.25 8.12499 11.25C8.52282 11.25 8.90435 11.408 9.18565 11.6893C9.46696 11.9706 9.62499 12.3521 9.62499 12.75ZM14.875 11.25C14.5783 11.25 14.2883 11.3379 14.0416 11.5028C13.795 11.6676 13.6027 11.9019 13.4892 12.1759C13.3756 12.45 13.3459 12.7516 13.4038 13.0426C13.4617 13.3336 13.6046 13.6009 13.8143 13.8106C14.0241 14.0204 14.2914 14.1633 14.5824 14.2211C14.8733 14.279 15.1749 14.2493 15.449 14.1358C15.7231 14.0223 15.9574 13.83 16.1222 13.5833C16.287 13.3367 16.375 13.0466 16.375 12.75C16.375 12.3521 16.217 11.9706 15.9357 11.6893C15.6543 11.408 15.2728 11.25 14.875 11.25ZM21.2725 13.7043C21.025 13.8175 20.7562 13.8767 20.4841 13.8778C20.3635 13.8774 20.2432 13.8652 20.125 13.8412V17.25C20.1238 18.3436 19.6888 19.3921 18.9154 20.1654C18.1421 20.9387 17.0936 21.3737 16 21.375H6.99999C5.90636 21.3737 4.85787 20.9387 4.08455 20.1654C3.31123 19.3921 2.87623 18.3436 2.87499 17.25V13.8403C2.75624 13.8647 2.6353 13.877 2.51406 13.8768C2.24257 13.8761 1.97438 13.8173 1.72749 13.7043C1.34215 13.535 1.02617 13.2392 0.831819 12.8659C0.637473 12.4925 0.576413 12.064 0.658743 11.6512L2.19812 3.40122C2.24553 3.15017 2.34374 2.91145 2.48674 2.69973C2.62973 2.488 2.81449 2.30774 3.02966 2.16999C3.24484 2.03225 3.4859 1.93993 3.73804 1.89871C3.99018 1.85749 4.24809 1.86823 4.49593 1.93028L4.53999 1.94247L9.41499 3.37403H13.5906L18.4656 1.94247L18.5097 1.93028C18.7577 1.86826 19.0158 1.85761 19.2681 1.89901C19.5204 1.94041 19.7616 2.03296 19.9768 2.171C20.192 2.30903 20.3767 2.48962 20.5196 2.70166C20.6624 2.91371 20.7604 3.15273 20.8075 3.40403L22.3469 11.654C22.4281 12.067 22.3659 12.4954 22.1705 12.8683C21.9751 13.2411 21.6583 13.5361 21.2725 13.7043ZM15.6475 5.11403L19.8437 10.5393L18.6662 4.22716L15.6475 5.11403ZM3.15624 10.5393L7.35249 5.11403L4.33374 4.22716L3.15624 10.5393ZM17.875 17.25V11.67L13.1978 5.62497H9.80218L5.12499 11.67V17.25C5.12499 17.7473 5.32254 18.2242 5.67417 18.5758C6.0258 18.9274 6.50271 19.125 6.99999 19.125H10.375V18.4687L9.20499 17.2978C8.99365 17.0864 8.87492 16.7998 8.87492 16.5009C8.87492 16.202 8.99365 15.9154 9.20499 15.704C9.41634 15.4927 9.70298 15.374 10.0019 15.374C10.3008 15.374 10.5874 15.4927 10.7987 15.704L11.5 16.4062L12.2041 15.7012C12.4154 15.4899 12.702 15.3711 13.0009 15.3711C13.2998 15.3711 13.5865 15.4899 13.7978 15.7012C14.0091 15.9126 14.1279 16.1992 14.1279 16.4981C14.1279 16.797 14.0091 17.0836 13.7978 17.295L12.625 18.4687V19.125H16C16.4973 19.125 16.9742 18.9274 17.3258 18.5758C17.6774 18.2242 17.875 17.7473 17.875 17.25Z"/>
</svg>

<svg viewBox="0 0 24 24" xmlns="http://www.w3.org/2000/svg" aria-hidden="true" fill="currentColor" height="24px" width="24px"><path d="M9.625 12.75a1.5 1.5 0 1 1-3 0 1.5 1.5 0 0 1 3 0m5.25-1.5a1.5 1.5 0 1 0 0 2.999 1.5 1.5 0 0 0 0-2.999m6.398 2.454a1.835 1.835 0 0 1-1.148.137v3.409A4.13 4.13 0 0 1 16 21.375H7a4.13 4.13 0 0 1-4.125-4.125v-3.41q-.18.037-.36.037c-.272 0-.54-.06-.788-.173A1.85 1.85 0 0 1 .66 11.651l1.54-8.25a1.875 1.875 0 0 1 2.297-1.47l.044.011 4.875 1.432h4.176l4.875-1.432.044-.012a1.875 1.875 0 0 1 2.297 1.474l1.54 8.25a1.85 1.85 0 0 1-1.075 2.05m-5.625-8.59 4.196 5.425-1.178-6.312zM3.156 10.539l4.196-5.425-3.018-.887zm14.719 6.711v-5.58l-4.677-6.045H9.802L5.125 11.67v5.58A1.875 1.875 0 0 0 7 19.125h3.375v-.656l-1.17-1.171a1.127 1.127 0 0 1 1.594-1.594l.701.702.704-.705a1.127 1.127 0 1 1 1.594 1.594l-1.173 1.174v.656H16a1.875 1.875 0 0 0 1.875-1.875"/></svg>
